Numix-Circle/48/applications/apport.svg

<svg width="48" xmlns="http://www.w3.org/2000/svg" viewBox="0 0 13.546667 13.546667" height="48" xmlns:xlink="http://www.w3.org/1999/xlink">
<defs>
<linearGradient id="linearGradient3778">
<stop offset="0" style="stop-color:#ff3e25"/>
<stop offset="1" style="stop-color:#e81b00"/>
</linearGradient>
<linearGradient gradientTransform="matrix(1.00914 0 0 1.00914 -.06156 -286.10572)" xlink:href="#linearGradient3778" id="linearGradient3018" y1="284.3" x1="6.939" y2="296.153" gradientUnits="userSpaceOnUse" x2="6.94"/>
</defs>
<g style="fill-rule:evenodd">
<rect width="12.982" x=".282" y=".282" rx="6.491" height="12.982" style="opacity:.5;fill:#fff"/>
<rect width="11.853" x=".847" y=".847" rx="5.926" height="11.853" style="fill:url(#linearGradient3018)"/>
</g>
<g style="fill:#fff;fill-opacity:.498" transform="matrix(.91305 0 0 .91305 .58882 -258.21654)">
<rect width="9.273" x="2.137" y="285.59" rx="4.636" height="9.273" style="opacity:.5;fill-rule:evenodd"/>
<path d="m 13,13 0,5.59375 3.5625,0 0,-2.03125 2.03125,0 0,-3.5625 L 13,13 z" transform="matrix(.28222 0 0 .28222 0 283.45331)"/>
<path d="m 29.40625,13 0,3.5625 2.03125,0 0,2.03125 3.5625,0 L 35,13 29.40625,13 z" transform="matrix(.28222 0 0 .28222 0 283.45331)"/>
<rect width=".927" x="3.67" y="292.621" height=".71"/>
<rect width=".927" x="4.599" y="291.916" height=".71"/>
<rect width=".927" x="-9.88" y="292.62" height=".71" transform="scale(-1 1)"/>
<rect width=".927" x="-8.951" y="291.915" height=".71" transform="scale(-1 1)"/>
<rect width="2.497" x="5.533" y="291.2" height=".71"/>
</g>
</svg>

<svg width="48" xmlns="http://www.w3.org/2000/svg" viewBox="0 0 13.546667 13.546667" height="48" xmlns:xlink="http://www.w3.org/1999/xlink">
<defs>
<linearGradient id="linearGradient3778">
<stop offset="0" style="stop-color:#ff6124"/>
<stop offset=".233" style="stop-color:#fd1d00"/>
<stop offset="1" style="stop-color:#d90000"/>
</linearGradient>
<linearGradient xlink:href="#linearGradient3778" id="linearGradient3784" y1="284.3" x1="6.939" y2="296.153" x2="6.94" gradientUnits="userSpaceOnUse"/>
</defs>
<g style="fill-rule:evenodd" transform="translate(0 -283.45331)">
<rect width="12.982" x=".282" y="283.736" rx="6.491" height="12.982" style="opacity:.5;fill:#fff"/>
<rect width="11.746" x=".9" y="284.354" rx="5.873" height="11.746" style="fill:url(#linearGradient3784)"/>
</g>
<g style="fill:#fff;fill-opacity:.498" transform="translate(0 -283.45331)">
<rect width="9.273" x="2.137" y="285.59" rx="4.636" height="9.273" style="opacity:.5;fill-rule:evenodd"/>
<path d="M 13 13 L 13 18.59375 L 16.5625 18.59375 L 16.5625 16.5625 L 18.59375 16.5625 L 18.59375 13 L 13 13 z " transform="matrix(.28222 0 0 .28222 0 283.45331)"/>
<path d="M 29.40625 13 L 29.40625 16.5625 L 31.4375 16.5625 L 31.4375 18.59375 L 35 18.59375 L 35 13 L 29.40625 13 z " transform="matrix(.28222 0 0 .28222 0 283.45331)"/>
<rect width=".927" x="3.67" y="292.621" height=".71"/>
<rect width=".927" x="4.599" y="291.916" height=".71"/>
<rect width=".927" x="-9.88" y="292.62" height=".71" transform="scale(-1 1)"/>
<rect width=".927" x="-8.951" y="291.915" height=".71" transform="scale(-1 1)"/>
<rect width="2.497" x="5.533" y="291.2" height=".71"/>
</g>
</svg>
